X: 123
T: the Reveilly
B: C. & S. Thompson, "The Compleat Tutor for the Fife" c.1760 p.12 #3
S: http://imslp.org/wiki/The_Compleat_Tutor_for_the_Fife_(Anonymous)
Z: 2014 John Chambers <jc:trillian.mit.edu>
M: 2/4
L: 1/16
K: G
% - - - - - - - - - - - - - - - - - - - - - - - - -
|:\
GFGA BABc | dcde d4 |\
g2fg agfe | d2e^c d4 :|\
|:\
defg a2c2 | dcBA B3A |
GABc d2B2 | edcB A4 |\
GFGA BABc | d2ef g2c2 |\
Bgfg B2cA | G6 :|
% - - - - - - - - - - - - - - - - - - - - - - - - -
